X: 10572
T: MAID OF ISLA
Q: "Slow time."
R: Strathspey.
%R: strathspey
B: W. Hamilton "Universal Tune-Book" Vol. 1 Glasgow 1844 p.57 #2
S: http://imslp.org/wiki/Hamilton's_Universal_Tune-Book_(Various)
Z: 2016 John Chambers <jc:trillian.mit.edu>
M: C
L: 1/16
K: F
% - - - - - - - - - - - - - - - - - - - - - - - - -
|:\
F3F c3A c3dc3A | F3F c3A d3c A4 |\
FF3 c3A c3dc3A | d3ef3d c3A"^Fin."G4 H:|\
|:\
f3gf3d c3dc3A | f3gf3d c3d G3c |
f3gf3d c3dc3A | d3ef3d (dc)BA G4 :|\
|:\
f3g gfed c3d dcBA | f3g gfed ca3A3c |\
f3ad3f c3df3Ha | agfe gfed dcBA GBA"^D.C."G :|
% - - - - - - - - - - - - - - - - - - - - - - - - -

%%sep 1 1 500
%%sep 1 1 500

